X:1
T:Title
%%score ( 1 2 ) ( 3 4 )
L:1/8
Q:1/4=90
M:4/4
K:Bb
V:1 treble nm="Strings 1, Soprano"
V:2 treble 
V:3 bass nm="Strings 1, Bass"
V:4 bass 
V:1
 z4 z2 [B,D][CE] | [DF][DF][Fd][Fd] [GB]2 [FA][EG] | [DF]2 [DF]2 [B,D]2 [DF][DF] | %3
w: 1.~Who~ can~|sing~ the~ won drous~ love~ of~ the~|Son~ di vine?~ O~ my~|
 [EG][DF][CE][B,D] [CE]2 [DF][CE] | [B,D]6 [B,D][CE] | [DF][DF][Fd][Fd] [GB]2 [FA][EG] | %6
w: Lord,~ there's~ none~ so~ dear~ to~ *|me~ As~ the~|One~ who~ bore~ the~ bur den~ of~|
 [DF]2 [DF]2 [B,D]2 [DF][DF] | [EG][EG][EB][EB] [EA]2 [Ec]2 | [DB]6 [B,D][CE] | %9
w: all~ my~ sin,~ And~ so~|free ly~ died~ to~ set~ me~|free.~ * *|
 [DF] [DF]3 [Fd]2 [FB][FA] | [EG] [EG]3 [Ge]4 | [DF] [DB]3 [Fd]2 [FB]2 | c6 z2 | z4 z2 .c2 | %14
w: |||||
 [EG][EG][EG][EG] [GB]2[Q:1/4=90] [FA][EG][Q:1/4=12] | [DF] [DB]3 [EA] [Ec]3 | B6 z2 |] %17
w: |||
V:2
 x8 | x8 | x8 | x8 | x8 | x8 | x8 | x8 | x8 | x8 | x8 | x8 | F2 =EE F2 [B,D][C_E] | %13
 [DF][DF][Fd][Fd] [DB]2 F-[FB] | x8 | x8 | D_DEE =D2 z2 |] %17
V:3
 z4 z2 [B,,F,][B,,F,] | [B,,B,][B,,B,][B,,B,][B,,B,] [E,B,]2 [E,B,][E,B,] | %2
 [B,,B,]2 [B,,B,]2 [B,,F,]2 [B,,F,][B,,F,] | [F,,F,][F,,F,][F,,F,][F,,F,] [F,,F,]2 [F,,F,]2 | %4
 [B,,F,]6 [B,,F,][B,,F,] | [B,,B,][B,,B,][B,,B,][B,,B,] [E,B,]2 [E,B,][E,B,] | %6
 [B,,B,]2 [B,,B,]2 [B,,F,]2 [B,,B,][B,,B,] | [E,B,][E,B,][E,G,][E,G,] F,2 [F,,F,]2 | %8
 [B,,F,]6 [B,,F,][B,,F,] | [B,,B,][B,,B,][B,,B,][B,,B,] [B,,B,]2 [D,B,][D,B,] | %10
 [E,B,][E,B,][E,B,][E,B,] [E,B,]4 | [B,,B,][B,,F,][B,,F,][B,,F,] [B,,B,][B,,B,][D,B,][D,B,] | %12
 z4 A,2 F,2 | [B,,B,][B,,B,][B,,B,][B,,B,] [B,,F,]2 [D,B,]2 | %14
 [E,B,][E,B,][E,B,][E,B,] [E,B,]2 [E,B,]2 | [F,B,] F,3 F, [F,,F,]3 | .F,2 z2 z4 |] %17
V:4
 x8 | x8 | x8 | x8 | x8 | x8 | x8 | x8 | x8 | x8 | x8 | x8 | [F,A,]2 [C,G,][C,G,] F,E,D,C, | x8 | %14
 x8 | x8 | B,,-[B,,-=E,][B,,-G,][B,,-G,] [B,,F,]2 z2 |] %17

